X: 161
T: No_84_The_Sioux_Follow_Me.krn
%%abc-version 2.0
%%abcx-abcm2ps-target-version 5.9.1 (29 Sep 2008)
%%abc-creator hum2abc beta
%%abcx-conversion-date 2020/08/10 18:54:56
%%gracespace 0 6 6
%%humdrum-veritas 1063589272
%%humdrum-veritas-data 3772236263
%%linebreak <none>
%%barnumbers 0
L: 1/8
M: 3/4
%%staves {1 2}
V: 1 clef=bass
V: 2 clef=bass
K: Db
[V:1] D3/D/ [I:setbarnb 1]| 
[V:2] z2 | 
[V:1] DA,/A,/D2D2 ||  
[V:2] (3!accent!G,, z G,, (3!accent!G,, z G,, (3!accent!G,, z G,, ||  
[V:1] [M:2/4]DD A,A,/D//D// | 
[V:2] [M:2/4]z4 | 
[V:1] EF DA,/A,/ | 
[V:2] z4 | 
[V:1] A,2A,2 | 
[V:2] z4 | 
[V:1] A,F,D,2 | 
[V:2] z4 | 
[V:1] A,2A,F,/F,/ | 
[V:2] z4 | 
[V:1] A,4 | 
[V:2] z4 | 
[V:1] A,F,D,2 | 
[V:2] z4 | 
[V:1] F,F, F,E, ||  
[V:2] z4 ||  
[V:1] [M:3/4]D,D, F,A,,D,2 | 
[V:2] [M:3/4]z6 | 
[V:1] A,,2A,,A,,A,,2 | 
[V:2] z6 | 
[V:1] [M:2/4]A,,4 |]  
[V:2] [M:2/4]z4 |]  


